X:21
T:Boil The Breakfast Early
R:reel
M:4/4
L:1/8
K:Gmaj
BA|G2 BG AFDF| G2Bd c2BA|G2 BG AFDF| GEEG c2BA|
G2 BG AFDF| G2 Bd c2 Bc|dBcA BGAF| GEEG c2 Bc||
d2 fd eBAB|d2 fa g2 fe|d2 fd eBAB| BGEG c2 Bc|
d2 fd eBAB|d2 fa g2 fg|afge fded| BGEG c2 Bc||
dAAA dAFA|dAAA defe|dAAA dAFA|GEEG c2 Bc|
dAAA dAFA|d^cde dgfe| dBcA BGAF|GEEG c2 ||

